img/icons/radio-btn.svg

<svg width="31" height="27" viewBox="0 0 31 27" fill="none" xmlns="http://www.w3.org/2000/svg">
<path d="M15.5001 8.23511C13.6638 8.23511 12.1699 9.72903 12.1699 11.5653C12.1699 13.0867 13.1958 14.3721 14.5919 14.7686V25.1283C14.5919 25.6299 14.9985 26.0365 15.5001 26.0365C16.0017 26.0365 16.4084 25.6299 16.4084 25.1283V14.7686C17.8044 14.3722 18.8303 13.0867 18.8303 11.5653C18.8303 9.72903 17.3364 8.23511 15.5001 8.23511ZM15.5001 13.079C14.6654 13.079 13.9864 12.4 13.9864 11.5653C13.9864 10.7306 14.6654 10.0516 15.5001 10.0516C16.3348 10.0516 17.0138 10.7306 17.0138 11.5653C17.0138 12.4 16.3348 13.079 15.5001 13.079Z" fill="white"/>
<path d="M11.2968 6.70963C10.9422 6.35493 10.3672 6.35493 10.0124 6.70963C7.19659 9.52533 7.19617 14.0833 10.0124 16.8995C10.3672 17.2542 10.9422 17.2542 11.2968 16.8995C11.6515 16.5448 11.6515 15.9697 11.2968 15.615C9.19095 13.5092 9.19059 10.1002 11.2968 7.99405C11.6515 7.63935 11.6515 7.06426 11.2968 6.70963Z" fill="white"/>
<path d="M20.986 6.7097C20.6314 6.35507 20.0563 6.35507 19.7016 6.7097C19.3469 7.06434 19.3469 7.63943 19.7016 7.99413C21.8027 10.0952 21.8027 13.514 19.7016 15.6151C19.3469 15.9698 19.3469 16.5449 19.7016 16.8996C20.0563 17.2543 20.6313 17.2543 20.986 16.8996C23.7954 14.0903 23.7954 9.51899 20.986 6.7097Z" fill="white"/>
<path d="M8.55785 5.25402C8.91254 4.89938 8.91254 4.32429 8.55785 3.96959C8.20321 3.61495 7.62812 3.61495 7.27342 3.96959C2.95313 8.28988 2.95313 15.3194 7.27342 19.6397C7.628 19.9944 8.20309 19.9946 8.55785 19.6397C8.91254 19.2851 8.91254 18.71 8.55785 18.3553C4.94586 14.7433 4.94586 8.86607 8.55785 5.25402Z" fill="white"/>
<path d="M23.7262 3.96959C23.3716 3.61495 22.7965 3.61495 22.4418 3.96959C22.0871 4.32423 22.0871 4.89932 22.4418 5.25402C26.0538 8.86607 26.0538 14.7433 22.4418 18.3553C22.0871 18.7099 22.0871 19.285 22.4418 19.6397C22.7966 19.9944 23.3715 19.9944 23.7262 19.6397C28.0465 15.3194 28.0465 8.28988 23.7262 3.96959Z" fill="white"/>
<path d="M5.818 2.51378C6.17269 2.15915 6.17269 1.58405 5.818 1.22936C5.46336 0.87472 4.88827 0.87472 4.53357 1.22936C-1.51776 7.28062 -1.50462 16.3416 4.53357 22.3798C4.88814 22.7344 5.46324 22.7346 5.818 22.3798C6.17269 22.0252 6.17269 21.4501 5.818 21.0954C0.521472 15.7987 0.521472 7.81043 5.818 2.51378Z" fill="white"/>
<path d="M26.4665 1.22936C26.1118 0.87472 25.5367 0.87472 25.182 1.22936C24.8273 1.58399 24.8273 2.15909 25.182 2.51378C30.4787 7.81043 30.4787 15.7987 25.182 21.0954C24.8273 21.45 24.8273 22.0251 25.182 22.3798C25.5368 22.7345 26.1118 22.7345 26.4665 22.3798C32.5177 16.3286 32.5047 7.26754 26.4665 1.22936Z" fill="white"/>
</svg>

<svg width="31" height="27" fill="none" xmlns="http://www.w3.org/2000/svg"><path d="M15.5 8.235a3.334 3.334 0 00-3.33 3.33 3.336 3.336 0 002.422 3.204v10.36a.908.908 0 101.816 0v-10.36a3.335 3.335 0 002.422-3.204 3.334 3.334 0 00-3.33-3.33zm0 4.844a1.515 1.515 0 01-1.514-1.514c0-.834.68-1.513 1.514-1.513.835 0 1.514.679 1.514 1.513 0 .835-.68 1.514-1.514 1.514zM11.297 6.71a.908.908 0 00-1.285 0 7.201 7.201 0 000 10.19.908.908 0 101.285-1.285 5.386 5.386 0 010-7.621.908.908 0 000-1.284zM20.986 6.71a.908.908 0 00-1.284 1.284 5.395 5.395 0 010 7.621.908.908 0 001.284 1.285c2.81-2.81 2.81-7.381 0-10.19z" fill="#fff"/><path d="M8.558 5.254A.908.908 0 107.273 3.97c-4.32 4.32-4.32 11.35 0 15.67a.908.908 0 101.285-1.285c-3.612-3.612-3.612-9.489 0-13.101zM23.726 3.97a.908.908 0 00-1.284 1.284c3.612 3.612 3.612 9.49 0 13.101a.908.908 0 101.284 1.285c4.32-4.32 4.32-11.35 0-15.67z" fill="#fff"/><path d="M5.818 2.514a.908.908 0 10-1.284-1.285c-6.052 6.052-6.039 15.113 0 21.15a.908.908 0 101.284-1.284C.521 15.8.521 7.81 5.818 2.514zM26.466 1.23a.908.908 0 00-1.284 1.284c5.297 5.296 5.297 13.285 0 18.581a.908.908 0 101.285 1.285c6.05-6.051 6.038-15.112 0-21.15z" fill="#fff"/></svg>
